assets/icons/qvision/phonelink_setup.svg

<svg width="24" height="24" viewBox="0 0 24 24" fill="none" xmlns="http://www.w3.org/2000/svg">
<g clip-path="url(#clip0_147_1944)">
<path d="M10.8201 12.49C10.8401 12.33 10.8601 12.17 10.8601 12C10.8601 11.83 10.8401 11.67 10.8201 11.51L11.9001 10.69C12.0001 10.62 12.0201 10.48 11.9601 10.37L10.9301 8.64C10.8701 8.53 10.7301 8.49 10.6201 8.53L9.34005 9.03C9.07005 8.83 8.78005 8.67 8.47005 8.54L8.27005 7.21C8.27005 7.09 8.16005 7 8.03005 7H5.98005C5.85005 7 5.74005 7.09 5.72005 7.21L5.52005 8.53C5.21005 8.65 4.92005 8.83 4.65005 9.02L3.37005 8.52C3.25005 8.47 3.12005 8.52 3.06005 8.63L2.03005 10.36C1.97005 10.48 2.00005 10.61 2.10005 10.69L3.18005 11.51C3.16005 11.67 3.15005 11.84 3.15005 12C3.15005 12.17 3.17005 12.33 3.19005 12.49L2.10005 13.32C2.00005 13.39 1.98005 13.53 2.04005 13.64L3.07005 15.37C3.13005 15.48 3.27005 15.52 3.38005 15.48L4.66005 14.98C4.93005 15.18 5.22005 15.34 5.53005 15.47L5.73005 16.79C5.74005 16.91 5.85005 17 5.98005 17H8.04005C8.17005 17 8.28005 16.91 8.29005 16.79L8.49005 15.47C8.80005 15.35 9.09005 15.17 9.36005 14.98L10.6401 15.48C10.7601 15.53 10.8901 15.48 10.9501 15.37L11.9801 13.64C12.0401 13.53 12.0201 13.4 11.9201 13.32L10.8201 12.49ZM7.00005 13.75C6.01005 13.75 5.20005 12.97 5.20005 12C5.20005 11.03 6.01005 10.25 7.00005 10.25C7.99005 10.25 8.80005 11.03 8.80005 12C8.80005 12.97 8.00005 13.75 7.00005 13.75ZM18.0001 1.01L8.00005 1C6.90005 1 6.00005 1.9 6.00005 3V6H8.00005V5H18.0001V19H8.00005V18H6.00005V21C6.00005 22.1 6.90005 23 8.00005 23H18.0001C19.1001 23 20.0001 22.1 20.0001 21V3C20.0001 1.9 19.1001 1.01 18.0001 1.01Z" fill="#323232"/>
</g>
<defs>
<clipPath id="clip0_147_1944">
<rect width="24" height="24" fill="white"/>
</clipPath>
</defs>
</svg>

<svg xmlns="http://www.w3.org/2000/svg" height="24" viewBox="0 0 24 24" width="24"><path d="M0 0h24v24H0z" fill="none"/><path d="M10.82 12.49c.02-.16.04-.32.04-.49 0-.17-.02-.33-.04-.49l1.08-.82c.1-.07.12-.21.06-.32l-1.03-1.73c-.06-.11-.2-.15-.31-.11l-1.28.5c-.27-.2-.56-.36-.87-.49l-.2-1.33c0-.12-.11-.21-.24-.21H5.98c-.13 0-.24.09-.26.21l-.2 1.32c-.31.12-.6.3-.87.49l-1.28-.5c-.12-.05-.25 0-.31.11l-1.03 1.73c-.06.12-.03.25.07.33l1.08.82c-.02.16-.03.33-.03.49 0 .17.02.33.04.49l-1.09.83c-.1.07-.12.21-.06.32l1.03 1.73c.06.11.2.15.31.11l1.28-.5c.27.2.56.36.87.49l.2 1.32c.01.12.12.21.25.21h2.06c.13 0 .24-.09.25-.21l.2-1.32c.31-.12.6-.3.87-.49l1.28.5c.12.05.25 0 .31-.11l1.03-1.73c.06-.11.04-.24-.06-.32l-1.1-.83zM7 13.75c-.99 0-1.8-.78-1.8-1.75s.81-1.75 1.8-1.75 1.8.78 1.8 1.75S8 13.75 7 13.75zM18 1.01L8 1c-1.1 0-2 .9-2 2v3h2V5h10v14H8v-1H6v3c0 1.1.9 2 2 2h10c1.1 0 2-.9 2-2V3c0-1.1-.9-1.99-2-1.99z"/></svg>
